X:1
T: John Howat
C:Hugh Dunlap
R:Reel
Q: 232
K:C
M:4/4
L:1/8
|:fg|a2 fd g2 ec|d2 AG FD DF|E2 FG AB cd|eA fA g2 fg|
a2 fd g2 ec|d2 AG FD DF|E2 FG AB cd|1eA Bc de fg:|2eA Bc d2 d2|
|:de fg aA fA|gf ed ce Ae|de fg aA fa|gb a^g a2 af|
ab af gf ed|ef gA GF ED|F2 AF G2 BG|1Ad ce d2 d2:|2Ad ce d2||
